exported-svg/codepen.svg

<svg height="24" viewBox="0 0 24 24" width="24" xmlns="http://www.w3.org/2000/svg"><path d="m11.0000004 3.42134302-8.60616975 5.59401036 4.10616977 2.87431882 4.49999998-3.14999998zm1 0v5.3183292l4.5 3.14999998 4.1061698-2.87431882zm9 11.61832918v-5.07934442l-3.6281031 2.53967222zm-.3938302.9449744-4.1061698-2.8743188-4.5 3.15v5.3183292zm-13.23427295-3.4846466 4.12810315 2.8896722 4.1281032-2.8896722-4.1281032-2.88967222zm-5.37189683 2.5396722 3.62810317-2.5396722-3.62810317-2.53967222zm.39383023.9449744 8.60616975 5.5940104v-5.3183292l-4.49999998-3.15zm-1.20804944.4042895c-.11678152-.0943232-.18578079-.2370007-.18578079-.3889361v-7c-.00012905-.09915873.02920262-.19932914.09038404-.28673117.04026029-.05751469.09043632-.10396314.14660147-.13865243l9.99052027-6.49383821c.1656989-.10770425.3792895-.10770425.5449884 0l9.9905203 6.49383821c.0561652.03468929.1063412.08113774.1466015.13865243.0305907.04370101.053219.09059412.0681888.13895683.0140944.04474195.0221952.09571469.0221952.14777434v7c0 .0520597-.0081008.1030324-.0234489.1513454-.0137161.0447916-.0363444.0916848-.0669351.1353858-.0402603.0575147-.0904363.1039631-.1466015.1386524l-9.9905203 6.4938382c-.1656989.1077043-.3792895.1077043-.5449884 0l-9.99052027-6.4938382c-.01773578-.0109541-.03487434-.0230809-.05129204-.0363584z"/></svg>

<?xml version="1.0" encoding="UTF-8"?>
<svg width="24px" height="24px" viewBox="0 0 24 24" version="1.1" xmlns="http://www.w3.org/2000/svg" xmlns:xlink="http://www.w3.org/1999/xlink">
    <!-- Generator: Sketch 55.2 (78181) - https://sketchapp.com -->
    <title>codepen</title>
    <desc>Created with Sketch.</desc>
    <g id="codepen" stroke="none" stroke-width="1" fill="none" fill-rule="evenodd">
        <path d="M11.0000004,3.42134302 L2.39383065,9.01535338 L6.50000042,11.8896722 L11.0000004,8.73967222 L11.0000004,3.42134302 Z M12.0000004,3.42134302 L12.0000004,8.73967222 L16.5000004,11.8896722 L20.6061702,9.01535338 L12.0000004,3.42134302 Z M21.0000004,15.0396722 L21.0000004,9.96032778 L17.3718973,12.5 L21.0000004,15.0396722 Z M20.6061702,15.9846466 L16.5000004,13.1103278 L12.0000004,16.2603278 L12.0000004,21.578657 L20.6061702,15.9846466 Z M7.37189725,12.5 L11.5000004,15.3896722 L15.6281036,12.5 L11.5000004,9.61032778 L7.37189725,12.5 Z M2.00000042,15.0396722 L5.62810359,12.5 L2.00000042,9.96032778 L2.00000042,15.0396722 Z M2.39383065,15.9846466 L11.0000004,21.578657 L11.0000004,16.2603278 L6.50000042,13.1103278 L2.39383065,15.9846466 Z M1.18578121,16.3889361 C1.06899969,16.2946129 1.00000042,16.1519354 1.00000042,16 L1.00000042,9 C0.999871368,8.90084127 1.02920304,8.80067086 1.09038446,8.71326883 C1.13064475,8.65575414 1.18082078,8.60930569 1.23698593,8.5746164 L11.2275062,2.08077819 C11.3932051,1.97307394 11.6067957,1.97307394 11.7724946,2.08077819 L21.7630149,8.5746164 C21.8191801,8.60930569 21.8693561,8.65575414 21.9096164,8.71326883 C21.9402071,8.75696984 21.9628354,8.80386295 21.9778052,8.85222566 C21.9918996,8.89696761 22.0000004,8.94794035 22.0000004,9 L22.0000004,16 C22.0000004,16.0520597 21.9918996,16.1030324 21.9765515,16.1513454 C21.9628354,16.196137 21.9402071,16.2430302 21.9096164,16.2867312 C21.8693561,16.3442459 21.8191801,16.3906943 21.7630149,16.4253836 L11.7724946,22.9192218 C11.6067957,23.0269261 11.3932051,23.0269261 11.2275062,22.9192218 L1.23698593,16.4253836 C1.21925015,16.4144295 1.20211159,16.4023027 1.18569389,16.3890252 Z" id="Combined-Shape" fill="#000000" fill-rule="nonzero"></path>
    </g>
</svg>
